X:5100
T:Phoenix
O:england
M:2/2
K:F
P:AABB
P:A
c|:"F"f2 c2 A2 F2|"C7"cdef g2 e2|"F"fg a2 "Gm"(g2 f2)|"C7"(e3 d/e/) "F"f4:|
P:B
"F"f2 c2 A2 F2|FGAB c2 A2|"Gm"dBcA BGAF|"C7"E3 D/E/ "F"F4:|
